assets/icons/country-flags/CG.svg

<svg width="24" height="24" viewBox="0 0 24 24" fill="none" xmlns="http://www.w3.org/2000/svg">
<g clip-path="url(#clip0_2848_9383)">
<path d="M6.50506 22.6705L15.3206 15.3202L22.671 6.50462C21.5282 4.28987 19.7161 2.47679 17.5022 1.33252L8.67968 8.67929L1.33301 17.5017C2.47718 19.7157 4.29026 21.5277 6.50506 22.6705V22.6705Z" fill="#FFD293"/>
<path d="M20.486 20.486C24.2719 16.7001 24.9987 11.0143 22.6679 6.49805L6.49805 22.6679C11.0143 24.9987 16.7001 24.2719 20.486 20.486Z" fill="#FF0062"/>
<path d="M3.51437 3.51437C-0.271537 7.30028 -0.998288 12.9861 1.33248 17.5023L17.5024 1.33252C12.9861 -0.998338 7.30028 -0.271494 3.51437 3.51437V3.51437Z" fill="#6DA544"/>
</g>
<defs>
<clipPath id="clip0_2848_9383">
<rect width="24.0001" height="24.0001" fill="white"/>
</clipPath>
</defs>
</svg>

<svg viewBox="0 0 24 24" fill="none" xmlns="http://www.w3.org/2000/svg"><g clip-path="url(#a)"><path d="m6.505 22.67 8.816-7.35 7.35-8.815a12.053 12.053 0 0 0-5.169-5.172L8.68 8.679l-7.347 8.823a12.052 12.052 0 0 0 5.172 5.169Z" fill="#FFD293"/><path d="M20.486 20.486c3.786-3.786 4.513-9.472 2.182-13.988l-16.17 16.17c4.516 2.33 10.202 1.604 13.988-2.182Z" fill="#FF0062"/><path d="M3.514 3.514C-.272 7.3-.998 12.986 1.332 17.502l16.17-16.17C12.986-.997 7.3-.27 3.514 3.515Z" fill="#6DA544"/></g><defs><clipPath id="a"><path fill="#fff" d="M0 0h24v24H0z"/></clipPath></defs></svg>
